SF_Symbols/heater.vertical.svg

<?xml version="1.0" encoding="UTF-8"?>
<svg xmlns="http://www.w3.org/2000/svg" xmlns:xlink="http://www.w3.org/1999/xlink" width="24" height="24" viewBox="0 0 24 24" version="1.1">
<g id="surface1">
<path style=" stroke:none;fill-rule:nonzero;fill:rgb(100%,100%,100%);fill-opacity:1;" d="M 3.054688 23.699219 L 8.867188 23.699219 C 9.511719 23.699219 10.027344 23.507812 10.414062 23.128906 C 10.804688 22.746094 10.996094 22.242188 10.996094 21.609375 L 10.996094 3.261719 C 10.996094 2.632812 10.804688 2.125 10.414062 1.742188 C 10.027344 1.363281 9.511719 1.171875 8.867188 1.171875 L 3.054688 1.171875 C 2.414062 1.171875 1.898438 1.363281 1.507812 1.742188 C 1.121094 2.125 0.929688 2.632812 0.929688 3.261719 L 0.929688 21.609375 C 0.929688 22.242188 1.121094 22.746094 1.507812 23.128906 C 1.898438 23.507812 2.414062 23.699219 3.054688 23.699219 Z M 3.085938 22.191406 C 2.652344 22.191406 2.4375 21.96875 2.4375 21.523438 L 2.4375 3.347656 C 2.4375 2.902344 2.652344 2.679688 3.085938 2.679688 L 8.839844 2.679688 C 9.273438 2.679688 9.488281 2.902344 9.488281 3.347656 L 9.488281 21.523438 C 9.488281 21.96875 9.273438 22.191406 8.839844 22.191406 Z M 8.070312 8.605469 C 8.203125 8.605469 8.3125 8.558594 8.398438 8.464844 C 8.492188 8.371094 8.539062 8.257812 8.539062 8.128906 L 8.539062 4.425781 C 8.539062 4.292969 8.492188 4.179688 8.398438 4.085938 C 8.3125 3.992188 8.203125 3.945312 8.070312 3.945312 C 7.941406 3.945312 7.828125 3.992188 7.734375 4.085938 C 7.640625 4.179688 7.59375 4.292969 7.59375 4.425781 L 7.59375 8.128906 C 7.59375 8.257812 7.640625 8.371094 7.734375 8.464844 C 7.828125 8.558594 7.941406 8.605469 8.070312 8.605469 Z M 6.140625 8.605469 C 6.265625 8.605469 6.375 8.558594 6.46875 8.464844 C 6.5625 8.371094 6.609375 8.257812 6.609375 8.128906 L 6.609375 4.425781 C 6.609375 4.292969 6.5625 4.179688 6.46875 4.085938 C 6.375 3.992188 6.265625 3.945312 6.140625 3.945312 C 6.003906 3.945312 5.886719 3.992188 5.792969 4.085938 C 5.699219 4.179688 5.652344 4.292969 5.652344 4.425781 L 5.652344 8.128906 C 5.652344 8.257812 5.699219 8.371094 5.792969 8.464844 C 5.886719 8.558594 6.003906 8.605469 6.140625 8.605469 Z M 8.070312 14.726562 C 8.203125 14.726562 8.3125 14.683594 8.398438 14.597656 C 8.492188 14.503906 8.539062 14.386719 8.539062 14.25 L 8.539062 10.546875 C 8.539062 10.414062 8.492188 10.304688 8.398438 10.21875 C 8.3125 10.125 8.203125 10.078125 8.070312 10.078125 C 7.941406 10.078125 7.828125 10.125 7.734375 10.21875 C 7.640625 10.304688 7.59375 10.414062 7.59375 10.546875 L 7.59375 14.25 C 7.59375 14.386719 7.640625 14.503906 7.734375 14.597656 C 7.828125 14.683594 7.941406 14.726562 8.070312 14.726562 Z M 6.140625 14.726562 C 6.265625 14.726562 6.375 14.683594 6.46875 14.597656 C 6.5625 14.503906 6.609375 14.386719 6.609375 14.25 L 6.609375 10.546875 C 6.609375 10.414062 6.5625 10.304688 6.46875 10.21875 C 6.375 10.125 6.265625 10.078125 6.140625 10.078125 C 6.003906 10.078125 5.886719 10.125 5.792969 10.21875 C 5.699219 10.304688 5.652344 10.414062 5.652344 10.546875 L 5.652344 14.25 C 5.652344 14.386719 5.699219 14.503906 5.792969 14.597656 C 5.886719 14.683594 6.003906 14.726562 6.140625 14.726562 Z M 8.070312 20.867188 C 8.203125 20.867188 8.3125 20.820312 8.398438 20.726562 C 8.492188 20.632812 8.539062 20.523438 8.539062 20.398438 L 8.539062 16.695312 C 8.539062 16.558594 8.492188 16.445312 8.398438 16.359375 C 8.3125 16.265625 8.203125 16.21875 8.070312 16.21875 C 7.941406 16.21875 7.828125 16.265625 7.734375 16.359375 C 7.640625 16.445312 7.59375 16.558594 7.59375 16.695312 L 7.59375 20.398438 C 7.59375 20.523438 7.640625 20.632812 7.734375 20.726562 C 7.828125 20.820312 7.941406 20.867188 8.070312 20.867188 Z M 6.140625 20.867188 C 6.265625 20.867188 6.375 20.820312 6.46875 20.726562 C 6.5625 20.632812 6.609375 20.523438 6.609375 20.398438 L 6.609375 16.695312 C 6.609375 16.558594 6.5625 16.445312 6.46875 16.359375 C 6.375 16.265625 6.265625 16.21875 6.140625 16.21875 C 6.003906 16.21875 5.886719 16.265625 5.792969 16.359375 C 5.699219 16.445312 5.652344 16.558594 5.652344 16.695312 L 5.652344 20.398438 C 5.652344 20.523438 5.699219 20.632812 5.792969 20.726562 C 5.886719 20.820312 6.003906 20.867188 6.140625 20.867188 Z M 14.699219 11.304688 C 15.199219 11.304688 15.65625 11.238281 16.070312 11.101562 C 16.488281 10.960938 16.882812 10.792969 17.25 10.59375 C 17.625 10.386719 17.992188 10.183594 18.347656 9.984375 C 18.710938 9.785156 19.082031 9.617188 19.460938 9.476562 C 19.84375 9.339844 20.25 9.273438 20.679688 9.273438 C 20.9375 9.273438 21.179688 9.304688 21.402344 9.367188 C 21.632812 9.421875 21.882812 9.523438 22.152344 9.675781 C 22.320312 9.769531 22.476562 9.792969 22.613281 9.75 C 22.757812 9.699219 22.867188 9.621094 22.941406 9.515625 C 23.035156 9.378906 23.070312 9.21875 23.042969 9.039062 C 23.019531 8.855469 22.902344 8.710938 22.695312 8.597656 C 22.078125 8.234375 21.40625 8.054688 20.679688 8.054688 C 20.175781 8.054688 19.710938 8.121094 19.285156 8.257812 C 18.867188 8.398438 18.46875 8.570312 18.09375 8.773438 C 17.71875 8.976562 17.351562 9.179688 16.996094 9.382812 C 16.640625 9.585938 16.273438 9.753906 15.898438 9.890625 C 15.523438 10.027344 15.125 10.097656 14.699219 10.097656 C 14.445312 10.097656 14.199219 10.066406 13.96875 10.003906 C 13.742188 9.941406 13.492188 9.832031 13.21875 9.675781 C 13.054688 9.585938 12.902344 9.570312 12.757812 9.617188 C 12.617188 9.664062 12.507812 9.742188 12.429688 9.863281 C 12.351562 9.992188 12.320312 10.148438 12.347656 10.332031 C 12.371094 10.507812 12.480469 10.648438 12.675781 10.761719 C 12.980469 10.957031 13.304688 11.097656 13.640625 11.183594 C 13.984375 11.265625 14.335938 11.304688 14.699219 11.304688 Z M 14.710938 14.0625 C 15.203125 14.0625 15.660156 13.992188 16.078125 13.855469 C 16.496094 13.71875 16.890625 13.550781 17.257812 13.351562 C 17.632812 13.148438 18 12.949219 18.355469 12.75 C 18.71875 12.542969 19.085938 12.371094 19.460938 12.234375 C 19.84375 12.097656 20.25 12.027344 20.679688 12.027344 C 20.945312 12.027344 21.1875 12.058594 21.414062 12.121094 C 21.644531 12.179688 21.894531 12.28125 22.164062 12.429688 C 22.324219 12.523438 22.476562 12.550781 22.621094 12.507812 C 22.765625 12.457031 22.875 12.378906 22.949219 12.273438 C 23.039062 12.132812 23.070312 11.976562 23.042969 11.804688 C 23.023438 11.621094 22.914062 11.472656 22.714844 11.351562 C 22.085938 10.992188 21.40625 10.808594 20.679688 10.808594 C 20.175781 10.808594 19.710938 10.878906 19.285156 11.015625 C 18.867188 11.152344 18.46875 11.324219 18.09375 11.53125 C 17.726562 11.730469 17.363281 11.933594 17.007812 12.140625 C 16.648438 12.339844 16.285156 12.507812 15.910156 12.648438 C 15.535156 12.785156 15.132812 12.851562 14.710938 12.851562 C 14.445312 12.851562 14.199219 12.820312 13.96875 12.757812 C 13.742188 12.695312 13.496094 12.589844 13.226562 12.441406 C 13.066406 12.347656 12.910156 12.324219 12.757812 12.375 C 12.617188 12.417969 12.507812 12.5 12.429688 12.617188 C 12.351562 12.75 12.320312 12.90625 12.347656 13.085938 C 12.371094 13.261719 12.484375 13.40625 12.683594 13.519531 C 12.992188 13.710938 13.3125 13.851562 13.648438 13.941406 C 13.992188 14.023438 14.347656 14.0625 14.710938 14.0625 Z M 14.699219 16.820312 C 15.199219 16.820312 15.65625 16.75 16.070312 16.613281 C 16.488281 16.476562 16.882812 16.304688 17.25 16.105469 C 17.625 15.90625 17.992188 15.707031 18.347656 15.507812 C 18.710938 15.300781 19.082031 15.128906 19.460938 14.992188 C 19.84375 14.851562 20.25 14.785156 20.679688 14.785156 C 20.9375 14.785156 21.179688 14.816406 21.402344 14.878906 C 21.632812 14.933594 21.882812 15.039062 22.152344 15.195312 C 22.320312 15.289062 22.476562 15.316406 22.613281 15.273438 C 22.757812 15.222656 22.867188 15.140625 22.941406 15.027344 C 23.035156 14.898438 23.070312 14.742188 23.042969 14.558594 C 23.019531 14.378906 22.902344 14.226562 22.695312 14.109375 C 22.078125 13.746094 21.40625 13.566406 20.679688 13.566406 C 20.175781 13.566406 19.710938 13.632812 19.285156 13.773438 C 18.867188 13.910156 18.46875 14.082031 18.09375 14.289062 C 17.71875 14.488281 17.351562 14.691406 16.996094 14.898438 C 16.640625 15.097656 16.273438 15.265625 15.898438 15.402344 C 15.523438 15.539062 15.125 15.609375 14.699219 15.609375 C 14.445312 15.609375 14.199219 15.578125 13.96875 15.515625 C 13.742188 15.453125 13.492188 15.347656 13.21875 15.195312 C 13.054688 15.101562 12.902344 15.082031 12.757812 15.132812 C 12.617188 15.175781 12.507812 15.257812 12.429688 15.375 C 12.351562 15.507812 12.320312 15.664062 12.347656 15.84375 C 12.371094 16.023438 12.480469 16.171875 12.675781 16.285156 C 12.980469 16.472656 13.304688 16.609375 13.640625 16.695312 C 13.984375 16.777344 14.335938 16.820312 14.699219 16.820312 Z M 14.699219 16.820312 "/>
</g>
</svg>

<svg xmlns="http://www.w3.org/2000/svg" width="24" height="24"><path style="stroke:none;fill-rule:nonzero;fill:#fff;fill-opacity:1" d="M3.055 23.7h5.812c.645 0 1.16-.192 1.547-.571.39-.383.582-.887.582-1.52V3.262c0-.63-.191-1.137-.582-1.52-.387-.379-.902-.57-1.547-.57H3.055c-.64 0-1.157.191-1.547.57-.387.383-.578.89-.578 1.52v18.347c0 .633.191 1.137.578 1.52.39.379.906.57 1.547.57Zm.03-1.509c-.433 0-.647-.222-.647-.668V3.348c0-.446.214-.668.648-.668H8.84c.433 0 .648.222.648.668v18.175c0 .446-.215.668-.648.668ZM8.07 8.605a.424.424 0 0 0 .328-.14.47.47 0 0 0 .141-.336V4.426a.448.448 0 0 0-.14-.34.418.418 0 0 0-.329-.14.47.47 0 0 0-.336.14.448.448 0 0 0-.14.34v3.703c0 .125.05.25.14.336.086.09.211.14.336.14Zm-1.93 0c.126 0 .243-.05.329-.14a.47.47 0 0 0 .14-.336V4.426a.463.463 0 0 0-.14-.34.452.452 0 0 0-.328-.14.479.479 0 0 0-.488.48v3.703c0 .125.05.25.14.336.094.094.21.14.348.14Zm1.93 6.122a.447.447 0 0 0 .328-.13.471.471 0 0 0 .141-.347v-3.703a.418.418 0 0 0-.14-.328.418.418 0 0 0-.329-.14.47.47 0 0 0-.336.14.418.418 0 0 0-.14.328v3.703c0 .137.047.254.14.348.09.086.211.132.336.129Zm-1.93 0a.488.488 0 0 0 .329-.13.471.471 0 0 0 .14-.347v-3.703a.418.418 0 0 0-.14-.328.452.452 0 0 0-.328-.14.471.471 0 0 0-.348.14.418.418 0 0 0-.14.328v3.703c0 .137.046.254.14.348.094.086.21.129.348.129Zm1.93 6.14a.424.424 0 0 0 .328-.14.452.452 0 0 0 .141-.329v-3.703a.434.434 0 0 0-.14-.336.418.418 0 0 0-.329-.14.47.47 0 0 0-.336.14.434.434 0 0 0-.14.336v3.703c0 .125.05.243.14.329.086.09.211.14.336.14Zm-1.93 0c.126 0 .243-.05.329-.14a.452.452 0 0 0 .14-.329v-3.703a.434.434 0 0 0-.14-.336.452.452 0 0 0-.328-.14.471.471 0 0 0-.348.14.434.434 0 0 0-.14.336v3.703c0 .125.05.243.14.329.094.093.21.14.348.14Zm8.56-9.562c.5 0 .956-.067 1.37-.203.418-.141.813-.309 1.18-.508.375-.207.742-.41 1.098-.61.363-.199.734-.367 1.113-.507.383-.137.789-.204 1.219-.204.258 0 .5.032.722.094.23.055.48.156.75.309.168.094.325.117.461.074a.664.664 0 0 0 .328-.234.643.643 0 0 0 .102-.477c-.023-.184-.14-.328-.348-.441a3.932 3.932 0 0 0-2.015-.543 4.567 4.567 0 0 0-1.395.203c-.418.14-.816.312-1.191.515-.375.204-.742.407-1.098.61-.351.199-.719.37-1.098.508a3.4 3.4 0 0 1-1.199.207c-.254 0-.5-.032-.73-.094a3.287 3.287 0 0 1-.75-.328.561.561 0 0 0-.461-.059.606.606 0 0 0-.328.246.7.7 0 0 0-.082.469c.023.176.132.316.328.43.297.191.62.336.965.422.343.082.695.12 1.058.12Zm.01 2.758c.493 0 .95-.07 1.368-.208.406-.132.8-.3 1.18-.503.375-.204.742-.403 1.097-.602.364-.207.73-.379 1.106-.516.383-.136.789-.207 1.219-.207.265 0 .508.032.734.094.23.059.48.16.75.309.16.093.313.12.457.078a.664.664 0 0 0 .328-.235.66.66 0 0 0 .094-.468c-.02-.184-.129-.332-.328-.453a4.081 4.081 0 0 0-2.035-.543c-.504 0-.97.07-1.395.207a6.86 6.86 0 0 0-1.191.515c-.367.2-.73.403-1.086.61-.36.199-.723.367-1.098.507a3.501 3.501 0 0 1-1.2.204c-.25.003-.5-.032-.741-.094a3.658 3.658 0 0 1-.742-.317.54.54 0 0 0-.47-.066.586.586 0 0 0-.327.242c-.082.14-.11.309-.082.469.023.176.136.32.336.434.308.19.629.332.964.421.344.082.7.121 1.063.121Zm-.01 2.757c.5 0 .956-.07 1.37-.207.407-.133.801-.304 1.18-.508.375-.199.742-.398 1.098-.597a7.197 7.197 0 0 1 1.113-.516c.383-.14.789-.207 1.219-.207.258 0 .5.031.722.094.23.055.48.16.75.316.168.094.325.121.461.078a.626.626 0 0 0 .328-.246.623.623 0 0 0 .102-.468c-.023-.18-.14-.332-.348-.45a3.932 3.932 0 0 0-2.015-.543c-.504 0-.97.067-1.395.207a6.574 6.574 0 0 0-1.191.516c-.375.2-.742.402-1.098.61-.355.199-.723.367-1.098.503a3.49 3.49 0 0 1-1.199.207c-.254 0-.5-.03-.73-.093a3.526 3.526 0 0 1-.75-.32c-.164-.094-.317-.114-.461-.063a.6.6 0 0 0-.328.242.7.7 0 0 0-.082.469c.023.18.132.328.328.441.304.188.629.324.965.41.343.082.695.125 1.058.125Zm0 0"/></svg>
